X:1
T:Title
%%score { 1 | 2 }
L:1/8
Q:1/4=232
M:4/2
K:Eb
V:1 treble nm="Grand Piano"
V:2 bass 
V:1
 z8 B4 B4 | B8 z8 | E6 E2 [DF]4 [DF]4 | G4 B4 c4 B4 | [Ge]4 [Gd]4 [Gc]4 [GB]4 | A4 G4 F4 C4 | %6
 E8 [DF]6 E2 | E16 | [DF]6 [DF]2 [DF]4 [DB]4 | c4 d4 c4 [DB]4 | [EG]6 [EG]2 [Ge]4 [Gd]4 | %11
 [Gc]4 G4 B4 =A4 | B8 c6 [DB]2 | [DB]16 | z8 B4 B4 | B8 z8 | E6 E2 [DF]4 [DF]4 | G4 B4 c4 B4 | %18
 [Ge]4 [Gd]4 [Gc]4 [GB]4 | A4 G4 F4 C4 | E8 [DF]6 E2 | E16 |] %22
V:2
 z8 B,4 B,4 | B,8 z8 | [E,G,B,]6 [E,G,B,]2 [B,,B,]4 [B,,B,]4 | %3
 [E,B,E]4 [E,G,E]4 [E,A,E]4 [E,G,E]4 | [C,C]4 [D,=B,]4 [E,C]4 [=E,C]4 | %5
 [F,CF]4 [G,B,E]4 [A,C]4 [A,,A,]4 | [B,,G,B,]8 [B,,A,]6 [E,G,]2 | [E,G,]16 | %8
 [B,,B,]6 [B,,B,]2 [B,,B,]4 [B,,B,]4 | [F,=A,E]4 [F,A,F]4 [F,A,E]4 [B,,B,]4 | %10
 [E,B,]6 [E,B,]2 [C,C]4 [D,=B,]4 | [E,C]4 [=E,C]4 [F,DF]4 [F,CF]4 | [G,B,D]8 [F,=A,E]6 [B,,B,]2 | %13
 [B,,B,]16 | z8 B,4 B,4 | B,8 z8 | [E,G,B,]6 [E,G,B,]2 [B,,B,]4 [B,,B,]4 | %17
 [E,B,E]4 [E,G,E]4 [E,A,E]4 [E,G,E]4 | [C,C]4 [D,=B,]4 [E,C]4 [=E,C]4 | %19
 [F,CF]4 [G,B,E]4 [A,C]4 [A,,A,]4 | [B,,G,B,]8 [B,,A,]6 [E,G,]2 | [E,G,]16 |] %22

